X: 6833
T: Charlie Hunter
R: jig
M: 6/8
K: Dmajor
|:DFA GBd|Adf a2g|f3 dB/c/d|ecA GFE|
DFA GBd|Adf a2g|f3 gec|1 edc d2A:|2 edc dfg||
|:afd dB/c/d|BGF G2F|EGB e2d|cAA A2e|
fdA DFA|GBd g2e|f3 gec|1 edc dfg:|2 edc d2A|

